src/assets/img/components/icon.svg

<?xml version="1.0" encoding="UTF-8" standalone="no"?>
<svg width="98px" height="100px" viewBox="0 0 98 100" version="1.1" xmlns="http://www.w3.org/2000/svg" xmlns:xlink="http://www.w3.org/1999/xlink">
    <title>Icon Component</title>
    <desc>Icon Component</desc>
    <defs></defs>
    <g id="Page-1" stroke="none" stroke-width="1" fill="none" fill-rule="evenodd">
        <g id="Material-Internal-Landing-Page-(Components)" transform="translate(-648.000000, -2401.000000)" fill="#00BCD4">
            <g id="icon" transform="translate(648.000000, 2401.000000)">
                <polygon id="x" points="41.5 4.77678571 37.7232143 1 22.75 15.9732143 7.77678571 1 4 4.77678571 18.9732143 19.75 4 34.7232143 7.77678571 38.5 22.75 23.5267857 37.7232143 38.5 41.5 34.7232143 26.5267857 19.75"></polygon>
                <polygon id="+" points="95 81.0714286 78.0714286 81.0714286 78.0714286 98 72.4285714 98 72.4285714 81.0714286 55.5 81.0714286 55.5 75.4285714 72.4285714 75.4285714 72.4285714 58.5 78.0714286 58.5 78.0714286 75.4285714 95 75.4285714"></polygon>
                <path d="M32.0909091,83.0795455 L36.1022727,83.0795455 L36.1022727,67.0340909 C36.1022727,64.8278409 34.2971591,63.0227273 32.0909091,63.0227273 L16.0454545,63.0227273 L16.0454545,67.0340909 L32.0909091,67.0340909 L32.0909091,83.0795455 L32.0909091,83.0795455 Z M12.0340909,87.0909091 L12.0340909,55 L8.02272727,55 L8.02272727,63.0227273 L0,63.0227273 L0,67.0340909 L8.02272727,67.0340909 L8.02272727,87.0909091 C8.02272727,89.2971591 9.82784091,91.1022727 12.0340909,91.1022727 L32.0909091,91.1022727 L32.0909091,99.125 L36.1022727,99.125 L36.1022727,91.1022727 L44.125,91.1022727 L44.125,87.0909091 L12.0340909,87.0909091 L12.0340909,87.0909091 Z" id="crop"></path>
                <path d="M58.25,31.4699 L58.25,39.75 L66.5301,39.75 L90.9508749,15.3292251 L82.6707749,7.04912512 L58.25,31.4699 L58.25,31.4699 Z M97.3541522,8.92594779 C98.2152826,8.06481739 98.2152826,6.67376059 97.3541522,5.81263019 L92.1873698,0.645847799 C91.3262394,-0.2152826 89.9351826,-0.2152826 89.0740522,0.645847799 L85.0333634,4.68653659 L93.3134634,12.9666366 L97.3541522,8.92594779 L97.3541522,8.92594779 Z" id="edit"></path>
            </g>
        </g>
    </g>
</svg>

<svg width="98" height="100" viewBox="0 0 98 100" xmlns="http://www.w3.org/2000/svg"><title>Icon Component</title><desc>Icon Component</desc><path d="M41.5 4.777L37.723 1 22.75 15.973 7.777 1 4 4.777 18.973 19.75 4 34.723 7.777 38.5 22.75 23.527 37.723 38.5l3.777-3.777L26.527 19.75zM95 81.071H78.071V98H72.43V81.071H55.5V75.43h16.929V58.5h5.642v16.929H95zM32.09 83.08h4.012V67.034a4.023 4.023 0 0 0-4.011-4.011H16.045v4.011h16.046V83.08zm-20.056 4.01V55H8.023v8.023H0v4.011h8.023v20.057a4.023 4.023 0 0 0 4.011 4.011h20.057v8.023h4.011v-8.023h8.023v-4.011h-32.09zM58.25 31.47v8.28h8.28l24.42-24.42-8.28-8.28-24.42 24.42zM97.354 8.926a2.199 2.199 0 0 0 0-3.113L92.187.646a2.199 2.199 0 0 0-3.113 0l-4.04 4.04 8.28 8.28 4.04-4.04z" fill="#00BCD4" fill-rule="evenodd"/></svg>
